images/lokation-before.svg

<svg width="73" height="73" viewBox="0 0 73 73" fill="none" xmlns="http://www.w3.org/2000/svg">
<path d="M51.7559 71.9307H21.2441C18.8818 71.9307 16.9668 70.0157 16.9668 67.6533V5.34668C16.9668 2.9843 18.8818 1.06934 21.2441 1.06934H51.7559C54.1182 1.06934 56.0332 2.9843 56.0332 5.34668V67.6533C56.0332 70.0157 54.1182 71.9307 51.7559 71.9307Z" fill="#EAF6FF"/>
<path d="M43.4692 49.1478C43.4692 59.4556 51.8983 66.2615 55.852 68.8866C55.9695 68.496 56.0334 68.0822 56.0334 67.6533V33.2258C48.8364 34.9459 43.4692 41.4315 43.4692 49.1478Z" fill="#D8ECFE"/>
<path d="M51.7559 73H21.2441C18.2959 73 15.8975 70.6015 15.8975 67.6533V5.34668C15.8975 2.39845 18.2959 0 21.2441 0H51.7559C54.7041 0 57.1025 2.39845 57.1025 5.34668V67.6533C57.1025 70.6015 54.7041 73 51.7559 73ZM21.2441 2.13867C19.4752 2.13867 18.0361 3.57786 18.0361 5.34668V67.6533C18.0361 69.4221 19.4752 70.8613 21.2441 70.8613H51.7559C53.5248 70.8613 54.9639 69.4221 54.9639 67.6533V5.34668C54.9639 3.57786 53.5248 2.13867 51.7559 2.13867H21.2441Z" fill="#9E9797"/>
<path d="M21.2629 41.3344C16.5774 41.3344 12.3382 38.5714 10.47 34.2996L8.24109 29.203C6.95119 26.2536 6.81203 22.9325 7.85057 19.8867L9.12993 16.1347C10.3136 12.6632 13.5909 10.3275 17.278 10.3275H25.2478C28.935 10.3275 32.2122 12.6632 33.3959 16.1347L34.6752 19.8867C35.7138 22.9325 35.5746 26.2536 34.2847 29.203L32.0558 34.2996C30.1876 38.5712 25.9484 41.3344 21.2629 41.3344Z" fill="#FED2A4"/>
<path d="M34.6756 19.8866L33.3963 16.1348C32.3844 13.1671 29.8419 11.031 26.8218 10.4731C27.8473 11.4184 28.6487 12.6173 29.1189 13.9962L30.3983 17.748C31.4368 20.7939 31.2977 24.1149 30.0078 27.0643L27.7788 32.1609C25.9106 36.4327 21.6715 39.1957 16.9859 39.1957C15.9453 39.1957 14.9267 39.0587 13.9512 38.7998C15.9908 40.4075 18.5517 41.3344 21.2633 41.3344C25.9488 41.3344 30.188 38.5714 32.0562 34.2996L34.2851 29.203C35.5749 26.2536 35.7142 22.9324 34.6756 19.8866Z" fill="#FFBD54"/>
<path d="M41.4563 23.5528C41.4563 25.6495 38.8297 26.6226 37.4581 25.0299C36.2151 23.5864 34.9383 21.9201 33.7106 20.0164C32.4262 18.0247 31.403 16.0946 30.5854 14.3061C29.353 11.61 32.5058 9.03432 34.9229 10.7652L40.412 14.6958C41.0678 15.1653 41.4563 15.9197 41.4563 16.723V23.5528Z" fill="#FFBD54"/>
<path d="M40.4125 14.6957L37.9694 12.9461C38.1228 13.2727 38.2063 13.6323 38.2063 14.0029V20.8328C38.2063 22.2169 37.0617 23.1108 35.8892 23.1006C36.4141 23.7824 36.9392 24.4268 37.4585 25.0297C38.8301 26.6226 41.4567 25.6494 41.4567 23.5526V16.7227C41.4567 15.9196 41.0682 15.1653 40.4125 14.6957Z" fill="#C38325"/>
<path d="M1.06934 23.5528C1.06934 25.6495 3.69591 26.6226 5.06751 25.0299C6.31051 23.5864 7.5873 21.9201 8.81504 20.0164C10.0994 18.0247 11.1227 16.0946 11.9402 14.3061C13.1727 11.61 10.0198 9.03432 7.60269 10.7652L2.11358 14.6958C1.45786 15.1653 1.06934 15.9197 1.06934 16.723V23.5528Z" fill="#FFBD54"/>
<path d="M18.9695 27.6505H22.6669C23.4225 27.6505 23.8907 28.4681 23.5049 29.1142L21.6563 32.2097C21.2786 32.842 20.3578 32.842 19.9801 32.2097L18.1314 29.1142C17.7458 28.4681 18.214 27.6505 18.9695 27.6505Z" fill="#9E9797"/>
<path d="M40.8691 6.4518H32.1306C29.7682 6.4518 27.8533 4.53684 27.8533 2.17446V1.06934H45.1464V2.17446C45.1464 4.53684 43.2313 6.4518 40.8691 6.4518Z" fill="#9E9797"/>
<path d="M71.9305 49.1478C71.9305 58.5903 59.8383 66.3135 59.8383 66.3135C59.8383 66.3135 47.7461 59.9045 47.7461 49.1478C47.7461 42.4695 53.1599 37.0556 59.8383 37.0556C66.5166 37.0556 71.9305 42.4696 71.9305 49.1478Z" fill="#78C0DE"/>
<path d="M62.9928 37.4741C65.828 39.687 67.6532 43.134 67.6532 47.0093C67.6532 55.2316 58.4855 62.1494 56.116 63.8001C58.1928 65.4406 59.8385 66.3136 59.8385 66.3136C59.8385 66.3136 71.9306 58.5903 71.9306 49.148C71.9306 43.5612 68.141 38.8618 62.9928 37.4741Z" fill="#61ADCD"/>
<path d="M59.8381 52.113C62.1325 52.113 63.9924 50.2531 63.9924 47.9587C63.9924 45.6643 62.1325 43.8044 59.8381 43.8044C57.5438 43.8044 55.6838 45.6643 55.6838 47.9587C55.6838 50.2531 57.5438 52.113 59.8381 52.113Z" fill="white"/>
<path d="M42.124 47.1854C42.5728 47.5652 43.2479 47.5123 43.631 47.0598L43.6402 47.0489C44.0216 46.5981 43.9608 45.9288 43.51 45.5473C43.059 45.1658 42.3798 45.2275 41.9982 45.6783C41.617 46.1292 41.6732 46.804 42.124 47.1854ZM42.5283 35.476C42.8909 35.0098 42.8069 34.3381 42.3409 33.9755L42.3296 33.9667C41.8634 33.604 41.1915 33.6878 40.8291 34.1542C40.4665 34.6204 40.5505 35.2921 41.0166 35.6547L41.0279 35.6635C41.4907 36.0238 42.1636 35.9449 42.5283 35.476ZM42.9723 64.9138C43.5677 64.9138 44.0559 64.4412 44.0559 63.8445C44.0559 63.2538 43.5771 62.7752 42.9866 62.7752H42.9723C42.3818 62.7752 41.903 63.2538 41.903 63.8445C41.903 64.4352 42.3818 64.9138 42.9723 64.9138ZM47.2639 64.9138C47.8593 64.9138 48.3475 64.4412 48.3475 63.8445C48.3475 63.2538 47.8688 62.7752 47.2782 62.7752H47.2639C46.6734 62.7752 46.1946 63.2538 46.1946 63.8445C46.1946 64.4352 46.6734 64.9138 47.2639 64.9138ZM24.6411 21.4284C25.1086 21.2423 25.6006 21.146 26.1029 21.1418C26.6275 21.1366 27.1429 21.2339 27.6314 21.4284C28.1676 21.6416 28.7992 21.3856 29.0202 20.8302C29.2386 20.2815 28.9707 19.6597 28.4221 19.4412C27.6754 19.1441 26.8898 18.9947 26.0854 19.0032C25.3169 19.0097 24.5649 19.1571 23.8506 19.4412C23.3018 19.6595 23.0339 20.2813 23.2522 20.8301C23.4705 21.3787 24.0924 21.6471 24.6411 21.4284ZM17.8847 21.4284C18.0145 21.4798 18.1482 21.5043 18.2798 21.5043C18.7048 21.5043 19.1069 21.2491 19.2737 20.8301C19.4921 20.2813 19.2242 19.6595 18.6756 19.4411C17.9289 19.144 17.1432 18.9945 16.3389 19.0031C15.5704 19.0095 14.8184 19.1569 14.1041 19.4411C13.5553 19.6594 13.2874 20.2812 13.5057 20.83C13.7239 21.3787 14.3458 21.6469 14.8946 21.4282C15.3621 21.2421 15.8541 21.1459 16.3564 21.1416C16.8817 21.1366 17.3961 21.234 17.8847 21.4284ZM25.9107 34.3144C25.9107 33.7237 25.4319 33.2451 24.8414 33.2451C24.2508 33.2451 23.7721 33.7237 23.7721 34.3144C23.7721 34.8277 23.3493 35.245 22.8298 35.245C22.3102 35.245 21.8875 34.8276 21.8875 34.3144V33.4537C22.1638 33.2844 22.4003 33.0489 22.5743 32.7578L24.4229 29.6624C24.8032 29.0256 24.8117 28.2604 24.4457 27.6155C24.0836 26.9775 23.4021 26.5811 22.6668 26.5811H18.9694C18.2343 26.5811 17.5527 26.9775 17.1905 27.6155C16.8245 28.2604 16.8329 29.0258 17.2133 29.6624L19.062 32.7578C19.2359 33.0489 19.4725 33.2844 19.7488 33.4537V34.3144C19.7488 34.8277 19.326 35.245 18.8065 35.245C18.2868 35.245 17.8642 34.8276 17.8642 34.3144C17.8642 33.7237 17.3854 33.2451 16.7948 33.2451C16.2043 33.2451 15.7255 33.7237 15.7255 34.3144C15.7255 36.0068 17.1077 37.3837 18.8065 37.3837C19.5748 37.3837 20.2779 37.1014 20.8181 36.6362C21.3583 37.1012 22.0614 37.3837 22.8298 37.3837C24.5286 37.3837 25.9107 36.0068 25.9107 34.3144ZM19.1413 28.7198H22.4947L20.818 31.5272L19.1413 28.7198ZM33.0356 34.7285L35.264 29.6316C35.8558 28.2791 36.2254 26.8496 36.3673 25.3956C36.4608 25.5064 36.5536 25.6179 36.6481 25.7275C37.2987 26.4832 38.2149 26.8907 39.1648 26.8907C39.5584 26.8907 39.9579 26.8207 40.3466 26.6764C41.6705 26.1849 42.5259 24.9589 42.5259 23.5528V16.7228C42.5259 15.5777 41.9684 14.4948 41.0348 13.8264L35.5457 9.89578C34.0571 8.82986 32.108 8.89502 30.6956 10.0586C30.4966 10.2226 30.3194 10.4025 30.16 10.5931C28.6787 9.72639 26.9721 9.25774 25.2474 9.25774H18.0361V5.34668C18.0361 3.57786 19.4752 2.13867 21.2441 2.13867H26.784V2.17446C26.784 5.12269 29.1825 7.52114 32.1307 7.52114H40.8692C43.8174 7.52114 46.2158 5.12269 46.2158 2.17446V2.13867H51.7559C53.5248 2.13867 54.9639 3.57786 54.9639 5.34668V33.3904C54.9639 33.9811 55.4426 34.4597 56.0332 34.4597C56.6238 34.4597 57.1025 33.9811 57.1025 33.3904V5.34668C57.1025 2.39845 54.7041 0 51.7559 0H21.2441C18.2959 0 15.8975 2.39845 15.8975 5.34668V9.3584C14.6533 9.53862 13.4488 9.95837 12.3652 10.5924C12.206 10.4021 12.0289 10.2223 11.83 10.0585C10.4178 8.89502 8.46871 8.82972 6.97991 9.89563L1.49108 13.8264C0.557481 14.4948 0 15.5777 0 16.7228V23.5528C0 24.9589 0.855469 26.1849 2.17931 26.6764C2.56812 26.8207 2.96734 26.8907 3.36128 26.8907C4.31099 26.8907 5.22734 26.4832 5.87793 25.7277C5.97231 25.618 6.06513 25.5067 6.15852 25.3959C6.30024 26.849 6.66966 28.2782 7.26122 29.6313L9.48986 34.7288C11.5302 39.3913 16.1513 42.4042 21.2627 42.4042C26.3757 42.4042 30.9968 39.3912 33.0356 34.7285ZM28.9227 2.13867H44.0772V2.17446C44.0772 3.94328 42.6381 5.38247 40.8692 5.38247H32.1307C30.3617 5.38247 28.9227 3.94328 28.9227 2.17446V2.13867ZM32.0557 11.7091C32.3587 11.4594 32.7734 11.2714 33.2324 11.2714C33.5733 11.2714 33.9386 11.3753 34.3007 11.6345L39.7898 15.5651C40.1641 15.833 40.3874 16.2659 40.3874 16.7228V23.5528C40.3874 24.3204 39.7867 24.603 39.6025 24.6714C39.4174 24.7402 38.7741 24.9187 38.2688 24.332C36.9418 22.7911 35.7107 21.1442 34.6097 19.4368C33.4639 17.66 32.4374 15.7843 31.5584 13.8614C31.1316 12.9281 31.5354 12.1377 32.0557 11.7091ZM4.25724 24.3321C3.75194 24.9187 3.10849 24.7402 2.92356 24.6714C2.73935 24.6031 2.13867 24.3204 2.13867 23.5528V16.7228C2.13867 16.2657 2.36195 15.833 2.73622 15.5651L8.22533 11.6345C8.58748 11.3753 8.95277 11.2714 9.29367 11.2714C9.75263 11.2714 10.1672 11.4594 10.4704 11.7091C10.9905 12.1377 11.3944 12.9281 10.9677 13.8614C10.089 15.7838 9.06227 17.6597 7.91637 19.4368C6.81538 21.1441 5.58421 22.7911 4.25724 24.3321ZM11.4493 33.8716L9.22067 28.7744C8.37547 26.8416 8.06564 24.7258 8.31672 22.6384C8.80121 21.9687 9.26786 21.2871 9.71371 20.5957C10.9152 18.7326 11.9915 16.7659 12.9129 14.7504C13.2382 14.0388 13.3413 13.2837 13.2424 12.5623C14.4426 11.807 15.8517 11.3961 17.2778 11.3961H25.2479C26.6735 11.3961 28.0828 11.8075 29.2837 12.5631C29.185 13.2844 29.2881 14.0391 29.6132 14.7504C30.5348 16.7663 31.6111 18.7331 32.8124 20.5957C33.2585 21.2873 33.7254 21.9693 34.2101 22.6393C34.46 24.7279 34.1496 26.8433 33.3045 28.7744L31.0762 33.8714C29.3778 37.7555 25.5258 40.2653 21.2627 40.2653C17.0009 40.2655 13.1488 37.7557 11.4493 33.8716ZM44.4966 39.2667C45.057 39.08 45.3597 38.4743 45.173 37.9141L45.1602 37.8772C44.9604 37.3214 44.3462 37.0273 43.7906 37.2274C43.2348 37.427 42.9444 38.0346 43.1441 38.5905C43.3462 39.1528 43.9487 39.4494 44.4966 39.2667ZM29.0511 63.5512C28.9471 64.1325 29.3339 64.6883 29.9152 64.7923C30.5007 64.8973 31.0863 64.5058 31.1757 63.8977C31.2608 63.3184 30.8645 62.7794 30.2883 62.6865C29.7083 62.5861 29.1551 62.9712 29.0511 63.5512ZM45.5734 42.6347L45.5771 42.6051C45.6461 42.0186 45.2266 41.4865 44.6401 41.4175C44.0542 41.3495 43.5223 41.7676 43.4533 42.354C43.3758 42.9394 43.7876 43.4769 44.373 43.5545C44.9468 43.6306 45.4965 43.2238 45.5734 42.6347ZM25.345 54.3491C25.5369 53.7904 25.2382 53.1868 24.6797 52.9947C24.1211 52.8027 23.5111 53.1046 23.3192 53.6631C23.1249 54.2208 23.4195 54.8304 23.9771 55.0247C24.5212 55.2144 25.1431 54.9311 25.3388 54.3669L25.345 54.3491ZM23.8848 57.1925C23.3129 57.3398 22.9686 57.9224 23.1159 58.4942C23.2345 58.9837 23.6721 59.3119 24.1543 59.3119C24.8344 59.3119 25.3599 58.6528 25.1944 57.9904C25.1931 57.9854 25.1884 57.9667 25.1871 57.9617C25.0399 57.3901 24.457 57.0457 23.8848 57.1925ZM59.8385 35.9863C52.5812 35.9863 46.6769 41.8905 46.6769 49.1478C46.6769 53.8411 48.8793 58.4686 53.0459 62.5302C53.6956 63.1635 54.3437 63.7354 54.9637 64.2457V67.6533C54.9637 69.4221 53.5247 70.8613 51.7557 70.8613H21.2441C19.4752 70.8613 18.0361 69.4221 18.0361 67.6533V44.8977C18.0361 44.307 17.5574 43.8284 16.9668 43.8284C16.3762 43.8284 15.8975 44.307 15.8975 44.8977V67.6533C15.8975 70.6015 18.2959 73 21.2441 73H51.7559C54.7041 73 57.1025 70.6015 57.1025 67.6533V65.8618C58.3816 66.7469 59.2696 67.2223 59.3377 67.2584C59.4947 67.3415 59.6668 67.3829 59.8385 67.3829C60.0391 67.3829 60.2393 67.3264 60.4142 67.2148C60.9281 66.8864 73 59.0621 73 49.1477C73 41.8906 67.0958 35.9863 59.8385 35.9863ZM59.7926 65.0521C57.502 63.6697 48.8158 57.8511 48.8158 49.1478C48.8158 43.0699 53.7605 38.125 59.8386 38.125C65.9167 38.125 70.8613 43.0699 70.8613 49.1478C70.8613 56.7973 62.0648 63.4592 59.7926 65.0521ZM27.4537 51.405C27.9199 51.0424 28.0039 50.3706 27.6412 49.9045C27.2786 49.4381 26.6069 49.3543 26.1407 49.717L26.1294 49.7258C25.6632 50.0884 25.5792 50.7602 25.9419 51.2263C26.3067 51.6953 26.9798 51.7741 27.4424 51.4138L27.4537 51.405ZM59.8385 42.7351C56.9581 42.7351 54.6148 45.0785 54.6148 47.9587C54.6148 50.8391 56.9582 53.1825 59.8385 53.1825C62.7187 53.1825 65.0621 50.8391 65.0621 47.9587C65.0622 45.0785 62.7188 42.7351 59.8385 42.7351ZM59.8385 51.0438C58.1374 51.0438 56.7535 49.6598 56.7535 47.9587C56.7535 46.2576 58.1375 44.8738 59.8385 44.8738C61.5394 44.8738 62.9234 46.2576 62.9234 47.9587C62.9234 49.6598 61.5396 51.0438 59.8385 51.0438ZM27.0914 62.6185C27.5005 62.1924 27.4866 61.5155 27.0606 61.1066L27.0337 61.0812C26.5989 60.6811 25.9196 60.7066 25.5196 61.1412C25.1198 61.5759 25.1449 62.2493 25.5795 62.6493C26.0137 63.0486 26.6821 63.0448 27.0914 62.6185ZM31.8023 48.931C31.7512 48.3451 31.2364 47.9108 30.6495 47.9584C30.066 47.9994 29.6226 48.5024 29.6571 49.0879C29.6906 49.6561 30.1618 50.0945 30.7236 50.0945C30.7447 50.0945 30.7659 50.094 30.7873 50.0927C31.3916 50.0572 31.8558 49.5425 31.8023 48.931ZM40.307 48.3719C40.1333 47.8074 39.5302 47.4921 38.9659 47.6657C38.4007 47.837 38.0813 48.4341 38.2526 48.9993C38.4258 49.5707 39.0336 49.8811 39.5861 49.7126L39.6041 49.707C40.1684 49.5332 40.4806 48.9364 40.307 48.3719ZM38.695 64.9138C39.2855 64.9138 39.7643 64.4352 39.7643 63.8445C39.7643 63.2538 39.2855 62.7752 38.695 62.7752H38.6807C38.0902 62.7752 37.6114 63.2538 37.6114 63.8445C37.6114 64.4385 38.0992 64.9138 38.695 64.9138ZM38.8056 33.3574C38.84 32.7723 38.3973 32.2696 37.8144 32.2281C37.2279 32.1782 36.7104 32.6123 36.6587 33.1995C36.6068 33.7877 37.0417 34.3067 37.6299 34.3586C37.6403 34.3596 37.6649 34.3615 37.6753 34.362C38.2583 34.401 38.771 33.9487 38.8056 33.3574ZM34.3891 62.7752C33.7986 62.7752 33.3269 63.2538 33.3269 63.8445C33.3269 64.4352 33.8128 64.9138 34.4034 64.9138C34.9939 64.9138 35.4727 64.4352 35.4727 63.8445C35.4727 63.2538 34.9939 62.7752 34.4034 62.7752H34.3891ZM36.0988 48.9988C36.0988 48.4081 35.62 47.9295 35.0294 47.9295H35.0152C34.4246 47.9295 33.9459 48.4081 33.9459 48.9988C33.9459 49.5928 34.4336 50.0682 35.0294 50.0682C35.62 50.0682 36.0988 49.5895 36.0988 48.9988Z" fill="black"/>
</svg>

<svg xmlns="http://www.w3.org/2000/svg" width="73" height="73" fill="none"><path fill="#EAF6FF" d="M51.756 71.93H21.244a4.277 4.277 0 0 1-4.277-4.277V5.347a4.277 4.277 0 0 1 4.277-4.278h30.512a4.277 4.277 0 0 1 4.277 4.278v62.306a4.277 4.277 0 0 1-4.277 4.278Z"/><path fill="#D8ECFE" d="M43.47 49.148c0 10.308 8.428 17.113 12.382 19.739.117-.391.181-.805.181-1.234V33.226c-7.197 1.72-12.564 8.206-12.564 15.922Z"/><path fill="#9E9797" d="M51.756 73H21.244a5.353 5.353 0 0 1-5.346-5.347V5.347A5.353 5.353 0 0 1 21.244 0h30.512a5.353 5.353 0 0 1 5.346 5.347v62.306A5.353 5.353 0 0 1 51.757 73ZM21.244 2.139a3.212 3.212 0 0 0-3.208 3.208v62.306a3.212 3.212 0 0 0 3.208 3.208h30.512a3.212 3.212 0 0 0 3.208-3.208V5.347a3.212 3.212 0 0 0-3.208-3.208H21.244Z"/><path fill="#FED2A4" d="M21.263 41.334c-4.686 0-8.925-2.763-10.793-7.034l-2.229-5.097a12.873 12.873 0 0 1-.39-9.316l1.279-3.752c1.184-3.472 4.46-5.808 8.148-5.808h7.97c3.687 0 6.964 2.336 8.148 5.808l1.28 3.752c1.038 3.046.899 6.367-.391 9.316l-2.23 5.097c-1.867 4.271-6.107 7.034-10.792 7.034Z"/><path fill="#FFBD54" d="m34.676 19.887-1.28-3.752a8.588 8.588 0 0 0-6.574-5.662 8.53 8.53 0 0 1 2.297 3.523l1.28 3.752c1.038 3.046.899 6.367-.391 9.316l-2.23 5.097c-1.867 4.272-6.106 7.035-10.792 7.035-1.04 0-2.06-.137-3.035-.396a11.804 11.804 0 0 0 7.312 2.534c4.686 0 8.925-2.763 10.793-7.034l2.23-5.097c1.289-2.95 1.428-6.27.39-9.316Z"/><path fill="#FFBD54" d="M41.456 23.553c0 2.096-2.626 3.07-3.998 1.477a45.35 45.35 0 0 1-6.873-10.724c-1.232-2.696 1.92-5.272 4.338-3.54l5.489 3.93a2.494 2.494 0 0 1 1.044 2.027v6.83Z"/><path fill="#C38325" d="m40.413 14.696-2.444-1.75c.154.327.237.686.237 1.057v6.83c0 1.384-1.144 2.278-2.317 2.268a45.35 45.35 0 0 0 1.57 1.929c1.371 1.593 3.998.62 3.998-1.477v-6.83c0-.803-.389-1.558-1.044-2.027Z"/><path fill="#FFBD54" d="M1.07 23.553c0 2.096 2.626 3.07 3.998 1.477a45.356 45.356 0 0 0 6.872-10.724c1.233-2.696-1.92-5.272-4.337-3.54l-5.49 3.93a2.494 2.494 0 0 0-1.044 2.027v6.83Z"/><path fill="#9E9797" d="M18.97 27.65h3.697a.969.969 0 0 1 .838 1.464l-1.849 3.096a.978.978 0 0 1-1.676 0l-1.849-3.096a.969.969 0 0 1 .838-1.463ZM40.87 6.452h-8.74a4.277 4.277 0 0 1-4.277-4.278V1.07h17.293v1.105a4.277 4.277 0 0 1-4.277 4.278Z"/><path fill="#78C0DE" d="M71.93 49.148c0 9.442-12.092 17.166-12.092 17.166s-12.092-6.41-12.092-17.166c0-6.679 5.414-12.092 12.092-12.092 6.679 0 12.092 5.414 12.092 12.092Z"/><path fill="#61ADCD" d="M62.993 37.474a12.068 12.068 0 0 1 4.66 9.535c0 8.223-9.168 15.14-11.537 16.791 2.077 1.64 3.723 2.514 3.723 2.514S71.93 58.59 71.93 49.148c0-5.587-3.79-10.286-8.938-11.674Z"/><path fill="#fff" d="M59.838 52.113a4.154 4.154 0 1 0 0-8.308 4.154 4.154 0 0 0 0 8.308Z"/><path fill="#000" d="M42.124 47.185a1.07 1.07 0 0 0 1.507-.125l.01-.011c.38-.45.32-1.12-.131-1.502a1.076 1.076 0 0 0-1.512.131 1.07 1.07 0 0 0 .126 1.507Zm.404-11.709a1.07 1.07 0 0 0-.187-1.5l-.011-.01a1.069 1.069 0 1 0-1.313 1.689l.01.008a1.07 1.07 0 0 0 1.501-.187Zm.444 29.438a1.07 1.07 0 1 0 .014-2.139h-.014a1.07 1.07 0 1 0 0 2.139Zm4.292 0a1.07 1.07 0 1 0 .014-2.139h-.014a1.07 1.07 0 1 0 0 2.139ZM24.64 21.428a4.029 4.029 0 0 1 2.99 0 1.07 1.07 0 0 0 .79-1.987 6.165 6.165 0 0 0-4.572 0 1.07 1.07 0 1 0 .792 1.987Zm-6.756 0a1.071 1.071 0 0 0 1.389-.598 1.07 1.07 0 0 0-.598-1.389 6.115 6.115 0 0 0-2.337-.438 6.16 6.16 0 0 0-2.235.438 1.07 1.07 0 1 0 .79 1.987 4.03 4.03 0 0 1 2.99 0Zm8.026 12.886a1.07 1.07 0 1 0-2.139 0c0 .514-.423.931-.942.931a.938.938 0 0 1-.942-.93v-.861c.276-.17.512-.405.686-.696l1.849-3.096c.38-.636.389-1.402.023-2.046a2.048 2.048 0 0 0-1.78-1.035H18.97c-.735 0-1.416.396-1.779 1.035a2.011 2.011 0 0 0 .023 2.046l1.849 3.096c.174.29.41.526.687.696v.86c0 .514-.423.931-.942.931a.937.937 0 0 1-.943-.93 1.07 1.07 0 1 0-2.139 0 3.079 3.079 0 0 0 5.093 2.321 3.079 3.079 0 0 0 5.093-2.322Zm-6.77-5.594h3.354l-1.677 2.807-1.677-2.807Zm13.895 6.008 2.228-5.096a13.942 13.942 0 0 0 1.103-4.236c.094.11.187.222.281.331a3.309 3.309 0 0 0 2.517 1.164c.393 0 .793-.07 1.182-.215a3.307 3.307 0 0 0 2.179-3.123v-6.83a3.571 3.571 0 0 0-1.491-2.897l-5.49-3.93a3.937 3.937 0 0 0-4.85.163 4.086 4.086 0 0 0-.535.534 9.765 9.765 0 0 0-4.913-1.335h-7.21V5.347a3.212 3.212 0 0 1 3.207-3.208h5.54v.035a5.353 5.353 0 0 0 5.347 5.347h8.738a5.353 5.353 0 0 0 5.347-5.347V2.14h5.54a3.212 3.212 0 0 1 3.208 3.208V33.39a1.07 1.07 0 1 0 2.139 0V5.347A5.353 5.353 0 0 0 51.755 0H21.244a5.353 5.353 0 0 0-5.346 5.347v4.011c-1.245.18-2.45.6-3.533 1.234-.159-.19-.336-.37-.535-.534a3.937 3.937 0 0 0-4.85-.162l-5.489 3.93A3.571 3.571 0 0 0 0 16.723v6.83c0 1.406.855 2.632 2.18 3.123a3.31 3.31 0 0 0 3.699-.949l.28-.331A13.95 13.95 0 0 0 7.26 29.63L9.49 34.73c2.04 4.662 6.661 7.675 11.773 7.675 5.113 0 9.734-3.013 11.773-7.676Zm-4.113-32.59h15.154v.036a3.212 3.212 0 0 1-3.208 3.208h-8.738a3.212 3.212 0 0 1-3.208-3.208V2.14Zm3.133 9.571c.303-.25.717-.438 1.176-.438.341 0 .707.104 1.069.363l5.489 3.931c.374.268.597.7.597 1.158v6.83c0 .767-.6 1.05-.785 1.118-.185.07-.828.248-1.333-.339a44.324 44.324 0 0 1-6.71-10.47c-.427-.934-.024-1.724.497-2.153ZM4.257 24.332c-.505.587-1.149.408-1.333.34-.185-.069-.785-.352-.785-1.12v-6.83c0-.456.223-.889.597-1.157l5.49-3.93c.361-.26.727-.364 1.068-.364.459 0 .873.188 1.176.438.52.429.924 1.22.498 2.152a44.329 44.329 0 0 1-6.71 10.471Zm7.192 9.54-2.228-5.098a11.79 11.79 0 0 1-.904-6.136 46.252 46.252 0 0 0 4.596-7.888 3.955 3.955 0 0 0 .33-2.188 7.609 7.609 0 0 1 4.035-1.166h7.97c1.425 0 2.835.411 4.036 1.167a3.956 3.956 0 0 0 .33 2.187 46.464 46.464 0 0 0 4.596 7.89c.25 2.088-.06 4.203-.906 6.134l-2.228 5.097c-1.698 3.884-5.55 6.394-9.813 6.394-4.262 0-8.114-2.51-9.814-6.393Zm33.048 5.395a1.07 1.07 0 0 0 .676-1.353l-.013-.037c-.2-.556-.814-.85-1.37-.65-.555.2-.846.808-.646 1.364.202.562.805.858 1.353.676ZM29.05 63.55a1.07 1.07 0 0 0 .864 1.241 1.08 1.08 0 0 0 1.26-.894 1.07 1.07 0 0 0-.887-1.212 1.07 1.07 0 0 0-1.237.865Zm16.522-20.916.004-.03a1.07 1.07 0 0 0-2.124-.251 1.07 1.07 0 0 0 2.12.28ZM25.345 54.349a1.065 1.065 0 0 0-.665-1.354 1.074 1.074 0 0 0-1.36.668 1.07 1.07 0 0 0 2.019.704l.006-.018Zm-1.46 2.844c-.572.147-.916.73-.77 1.301.12.49.557.818 1.04.818.68 0 1.205-.66 1.04-1.322l-.008-.028a1.07 1.07 0 0 0-1.302-.77Zm35.954-21.207c-7.258 0-13.162 5.905-13.162 13.162 0 4.693 2.202 9.32 6.369 13.382.65.633 1.298 1.205 1.918 1.716v3.407a3.212 3.212 0 0 1-3.208 3.208H21.244a3.212 3.212 0 0 1-3.208-3.208V44.898a1.07 1.07 0 1 0-2.139 0v22.755A5.353 5.353 0 0 0 21.245 73h30.512a5.353 5.353 0 0 0 5.346-5.347v-1.791c1.28.885 2.168 1.36 2.236 1.396a1.07 1.07 0 0 0 1.076-.043C60.928 66.886 73 59.062 73 49.148c0-7.257-5.904-13.162-13.161-13.162Zm-.046 29.066c-2.291-1.382-10.977-7.2-10.977-15.904 0-6.078 4.944-11.023 11.023-11.023 6.078 0 11.022 4.945 11.022 11.023 0 7.65-8.796 14.311-11.068 15.904Zm-32.34-13.647a1.07 1.07 0 1 0-1.312-1.688l-.012.009a1.07 1.07 0 1 0 1.313 1.688l.012-.009Zm32.386-8.67a5.23 5.23 0 0 0-5.224 5.224 5.23 5.23 0 0 0 5.224 5.223 5.23 5.23 0 0 0 5.223-5.223 5.23 5.23 0 0 0-5.223-5.224Zm0 8.309a3.089 3.089 0 0 1-3.085-3.085 3.088 3.088 0 0 1 3.085-3.085c1.7 0 3.084 1.384 3.084 3.085a3.088 3.088 0 0 1-3.084 3.085ZM27.09 62.619a1.07 1.07 0 0 0-.03-1.512l-.027-.026a1.073 1.073 0 0 0-1.514.06c-.4.435-.375 1.108.06 1.508.434.4 1.102.396 1.511-.03Zm4.711-13.688a1.07 1.07 0 0 0-1.152-.973 1.07 1.07 0 0 0 .137 2.135 1.071 1.071 0 0 0 1.015-1.162Zm8.505-.56a1.074 1.074 0 0 0-2.054.628c.173.572.78.882 1.333.714l.018-.006c.564-.174.877-.77.703-1.335Zm-1.612 16.543a1.07 1.07 0 1 0 0-2.139h-.014c-.59 0-1.07.479-1.07 1.07 0 .594.488 1.069 1.084 1.069Zm.11-31.557a1.07 1.07 0 0 0-.99-1.129 1.07 1.07 0 1 0-.14 2.134 1.07 1.07 0 0 0 1.13-1.005ZM34.39 62.775c-.59 0-1.062.479-1.062 1.07 0 .59.486 1.069 1.076 1.069a1.07 1.07 0 1 0 0-2.139h-.014ZM36.1 49c0-.59-.479-1.07-1.07-1.07h-.014c-.59 0-1.07.48-1.07 1.07 0 .594.489 1.07 1.084 1.07.591 0 1.07-.48 1.07-1.07Z"/></svg>
